dist/img/linkedin.svg

<svg width="16" height="14" viewBox="0 0 16 14" fill="none" xmlns="http://www.w3.org/2000/svg">
<path d="M4.00604 5.09399H1.82303C1.41174 5.09399 1.06372 5.42619 1.06372 5.8533V13.2407C1.06372 13.652 1.39592 14.0001 1.82303 14.0001H4.00604C4.41733 14.0001 4.76535 13.6679 4.76535 13.2407V5.8533C4.76535 5.44201 4.41733 5.09399 4.00604 5.09399ZM3.89531 13.13H1.94958V5.96404H3.89531V13.13Z" fill="white"/>
<path d="M12.8174 5.12485C12.153 5.04575 11.4095 5.15649 10.7451 5.45705C10.4445 5.59942 10.144 5.77342 9.85922 5.97907V5.8367C9.85922 5.42541 9.52703 5.07739 9.09991 5.07739H6.9169C6.50561 5.07739 6.15759 5.40959 6.15759 5.8367V13.2241C6.15759 13.6354 6.48979 13.9834 6.9169 13.9834H9.09991C9.51121 13.9834 9.85922 13.6513 9.85922 13.2241V10.2976V10.2027C9.85922 9.71234 10.2547 9.31686 10.7451 9.31686C11.2355 9.31686 11.6309 9.71234 11.6309 10.2027V13.0818V13.24C11.6309 13.6513 11.9631 13.9993 12.3903 13.9993H14.5733C14.9846 13.9993 15.3326 13.6671 15.3326 13.24V7.9248C15.3009 6.51692 14.2094 5.29886 12.8174 5.12485ZM14.4309 13.1292H12.4852V10.3293V10.1869C12.4852 9.22195 11.6942 8.43101 10.7293 8.43101C9.76431 8.43101 8.97336 9.22195 8.97336 10.1869V13.066V13.1134H7.04345V5.96325H8.98918V6.45364C8.98918 6.69092 9.13155 6.91239 9.35302 7.02312C9.57448 7.13385 9.82759 7.10222 10.0174 6.94403C10.1123 6.86493 10.2072 6.80166 10.2705 6.7542C10.3022 6.72256 10.3338 6.70674 10.3496 6.69092C10.5869 6.5011 10.84 6.35873 11.1089 6.23217C11.6468 5.99489 12.2162 5.89998 12.7224 5.96325C13.6874 6.07398 14.4309 6.92821 14.4309 7.90898V13.1292Z" fill="white"/>
<path d="M2.91462 0C1.82312 0 0.937256 0.88586 0.937256 1.97737C0.937256 3.06887 1.82312 3.95473 2.91462 3.95473C4.00613 3.95473 4.89199 3.06887 4.89199 1.97737C4.89199 0.88586 4.02195 0 2.91462 0ZM2.91462 3.08469C2.29768 3.08469 1.8073 2.57849 1.8073 1.97737C1.8073 1.37625 2.3135 0.870041 2.91462 0.870041C3.53156 0.870041 4.02195 1.37625 4.02195 1.97737C4.02195 2.57849 3.53156 3.08469 2.91462 3.08469Z" fill="white"/>
</svg>

<svg fill="none" xmlns="http://www.w3.org/2000/svg" viewBox="0 0 16 14"><path d="M4.006 5.094H1.823a.76.76 0 00-.76.76v7.387c0 .411.333.76.76.76h2.183a.76.76 0 00.76-.76V5.853a.77.77 0 00-.76-.759zm-.11 8.036H1.95V5.964h1.945v7.166zm8.921-8.005a3.985 3.985 0 00-2.072.332c-.3.142-.601.316-.886.522v-.142a.76.76 0 00-.76-.76H6.918a.76.76 0 00-.76.76v7.387c0 .411.333.76.76.76H9.1a.76.76 0 00.76-.76v-3.021a.884.884 0 111.772 0v3.037a.759.759 0 00.758.76h2.183a.76.76 0 00.76-.76V7.925c-.032-1.408-1.124-2.626-2.516-2.8zm1.614 8.004h-1.946v-2.942c0-.965-.79-1.756-1.756-1.756-.965 0-1.756.791-1.756 1.756v2.926h-1.93v-7.15H8.99v.49c0 .238.143.46.364.57.221.11.475.08.664-.079.095-.08.19-.142.254-.19.031-.031.063-.047.079-.063.237-.19.49-.332.759-.459.538-.237 1.107-.332 1.613-.269.965.111 1.709.965 1.709 1.946v5.22zM2.915 0a1.978 1.978 0 101.977 1.977C4.892.886 4.022 0 2.915 0zm0 3.085a1.11 1.11 0 01-1.108-1.108c0-.6.506-1.107 1.108-1.107a1.11 1.11 0 011.107 1.107 1.11 1.11 0 01-1.107 1.108z" fill="#fff"/></svg>
